X:544
T:Jerry's Pipe Jig
C:Jerry Holland
S:Iain MacDonald via Niall Anderson, Glasgow,
Z:Nigel Gatherer
M:6/8
L:1/8
K:D
edB AAA | eee efg | edB cAc | BGG Bcd  |
edB A3  | ABc e2f | gaa age | edB BAA :|
eaa eaa | dBd egg | eag f2d | edB Bdd  |
eaa eaa | dBd egg | gaa age | edB BAA :|
<end>
<start>
